Obsidian/actions/22s/node-transform.svg

<svg height="22" viewBox="0 0 22 22" width="22" xmlns="http://www.w3.org/2000/svg"><path d="m0 0v5l1.5-1.5 2 2-1.5 1.5h5v-5l-1.5 1.5-2-2 1.5-1.5zm11 0 1.5 1.5-2 2-1.5-1.5v5h5l-1.5-1.5 2-2 1.5 1.5v-5zm-9 9 1.5 1.5-2 2-1.5-1.5v5h5l-1.5-1.5 2-2 1.5 1.5v-5zm7 0v5l1.5-1.5 2 2-1.5 1.5h5v-5l-1.5 1.5-2-2 1.5-1.5z" fill="#bebebe" transform="translate(3 3)"/></svg>

<svg xmlns="http://www.w3.org/2000/svg" width="22" height="22" viewBox="0 0 22 22">
 <defs>
  <style id="current-color-scheme" type="text/css">
   .ColorScheme-Text { color:#bebebe; } .ColorScheme-Highlight { color:#4285f4; }
  </style>
 </defs>
 <path style="fill:currentColor" class="ColorScheme-Text" d="M 0 0 L 0 5 L 1.5 3.5 L 3.5 5.5 L 2 7 L 7 7 L 7 2 L 5.5 3.5 L 3.5 1.5 L 5 0 L 0 0 z M 11 0 L 12.5 1.5 L 10.5 3.5 L 9 2 L 9 7 L 14 7 L 12.5 5.5 L 14.5 3.5 L 16 5 L 16 0 L 11 0 z M 2 9 L 3.5 10.5 L 1.5 12.5 L 0 11 L 0 16 L 5 16 L 3.5 14.5 L 5.5 12.5 L 7 14 L 7 9 L 2 9 z M 9 9 L 9 14 L 10.5 12.5 L 12.5 14.5 L 11 16 L 16 16 L 16 11 L 14.5 12.5 L 12.5 10.5 L 14 9 L 9 9 z" transform="translate(3 3)"/>
</svg>
